X: 19012
T: Interference
R: reel
M: 4/4
K: Eminor
|:G~E3 D~E3|G~E3 ABAF|G~E3 GABd|e3e edBA|
GE=CE DEFA|G~E3 ABAF|G~E3 GABd|egdB ~A3A:|
|:e2ed B2BA|GAAG AGE2|eged B2BA|GAAG ~A3A|
eged B2BA|G~A3 AGE2|G~E3 GABd|egdB GEE2:|

